X:1
T:James Gibb editions
T:Christi, Fil Dei - Prez
T:#
%%score [ 1 2 3 4 ]
L:1/8
Q:1/4=120
M:4/4
K:F
V:1 treble nm="Soprano" snm="S"
V:2 treble nm="Alto" snm="A"
V:3 treble-8 nm="Tenor" snm="T"
V:4 bass nm="Bass" snm="B"
V:1
"^Christe, Fili Dei""^Josquin des Prez\n(c.1455-1521)" G8 | G8 | (B6 A2) | F4 (G4 | A4 B4- | %5
w: Chri-|ste,|Fi\- *|li De\-||
 B2 A2 A4- | A4 G4) | A8 | z8 | z4 F4 | G4 E4 | (F4 G4 | A2 B4) (AG) | F4 z4 | (F4 G4 | A2 B4 AG) | %16
w: ||i,||mun-|di qui|cri\- *|* * mi\- *|na|tol\- *||
 (F4 G4) | z2 (F2 G2) B2 | (A2 B4) (AG) | (F2 G4 ^F2) | !fermata!G8 | G8 | G8 | (B6 A2) | F4 (G4 | %25
w: lis, *|mi\- * se-|re\- * re *|no\- * *|bis.|Chri-|ste,|Fi\- *|li De\-|
 A4 B4- | B2 A2 A4- | A4 G4) | A8 | z8 | z8 | z8 | z8 | z8 | z8 | z8 | z8 | z8 | A8 | A4 A4 | %40
w: |||i,||||||||||mun-|di ve-|
 D4 G4 | F4 G4 | A8- | A8 | z8 | D4 D4 | E4 F4 | G8 | !fermata!^F8 || G8 | (B6 A2) | (F4 G4) | %52
w: ris- si-|ma sa-|lus,|||mi- se-|re- re|no-|bis.|Chri-|ste, *|Fi\- *|
 (A4 B4- | B2 A2) (A4- | A4 G4) | A8 | z4 A4- | A2 A2 A4 | A4 (A4 | G4 A4- | A2) F2 F4- | F4 E4 | %62
w: li *|* * De\-||i,|pre\-|* ci- bus|san- ctis\-||* si- mae|* ma-|
 F8 | z4 F4 | (G2 B2 A2 c2 | B2 G4) ^F2 | G8 | z8 | z8 | z8 | z8 | z8 | z8 | z4 F4 | G4 F4 | %75
w: tris|ad-|ju\- * * *|* * va|nos|||||||et|tol- le|
 B6 A2 | (G4 F4 | B4) A2 (d2- | d2 c2) A4 | (B2 G2 G4- | G4 ^F4) | G8- | G8 |] %83
w: tri- bu-|la\- *|* ti- o\-|* * nem|nos\- * *||tram.||
V:2
 z8 | z8 | z8 | z8 | z8 | z8 | D8 | F4 F4 | E8 | A,8 | z4 C4 | D4 E4 | F4 E2 C2 | D4 ^C4 | z4 E4 | %15
w: ||||||Sal-|va- tor|nos-|ter,|mun-|di qui|cri- mi- na|tol- lis,|mi|
 F4 G4 | A4 (G2 E2 | F2 D4 E2- | ED D4 ^C2) | D8- | !fermata!D8 | z8 | z8 | z8 | z8 | z8 | z8 | %27
w: se- re-|re no\- *|||bis.||||||||
 D8 | F4 E4- | E4 C4 | (D4 C4- | C4 F4- | F4 E4) | F8 | z8 | (F8 | _E4 C4) | D8 | C4 A,4- | %39
w: Chri-|ste, Fi\-|* li|De\- *|||i,||mun\-||di|ve- ris\-|
 A,4 D4- | D4 ^C4 | (D4 E4) | C8 | z8 | C4 C4 | D6 C2 | (B,3 A, A,4- | A,4 G,4) | !fermata!A,8 || %49
w: * si\-|* ma|sa\- *|lus,||mi- se-|re- re|no\- * *||bis.|
 z8 | z8 | z8 | z8 | z8 | z8 | z4 E4- | E2 E2 E4 | (F6 ED) | C4 D4 | E4 (C4- | C4 =B,4) | C8 | %62
w: ||||||pre\-|* ci- bus|san\- * *|ctis- si-|mae ma\-||tris|
 z4 A,4 | B,4 C4 | (D4 A,4) | z4 C4 | D4 C4 | F6 E2 | (D4 C4 | F4) E2 (A2- | A2 G2) E4 | %71
w: ad-|ju- va|nos *|et|tol- le|tri- bu-|la\- *|* ti- o\-|* * nem|
 (F2 D2 D4- | D4 ^C4 | D8- | D8 | D8 | D8) | D8- | D8 | D8 | D8 | D8 | D8 |] %83
w: nos * *||||||tram.||||||
V:3
 z8 | G8 | G8 | (B6 A2) | F4 (G4 | A8 | B8 | A4 d4- | c4 ^c4) | d8 | G8 | A4 B4 | (A2 F2 G3 A | %13
w: |Chri-|ste,|Fi\- *|li De\-|||||i,|mun-|di qui|cri\- * * *|
 B2 A4) G2 | A4 z2 (B2 | c2 d4 ^c2 | d4 G4 | A4) G4 | z2 F2 (G3 A) | B2 G2 A4 | !fermata!G8 | z8 | %22
w: * * mi-|na tol\-|||* lis,|mi- se\- *|re- re no-|bis.||
 G8 | G8 | (B6 A2) | F4 (G4 | A8 | B8 | A8 | c8 | B4 c4 | A4 F4) | G8 | z4 (F4 | G4 A4 | F4 B4- | %36
w: Chri-|ste,|Fi\- *|li De\-|||||||i,|mun\-|||
 B4 A4) | B8 | A8 | A4 A4 | (B4 G4) | (A2 B2 c4 | A6 F2) | F4 (f4 | e4) f4 | (g6 f2 | e2) d2 (d4- | %47
w: |di|ve-|ris- si-|ma *|sa\- * *||lus, mi\-|* se-|re\- *|* re no\-|
 d4 ^c4) | !fermata!d8 || G8 | G8 | (B6 A2) | (F4 G4) | (A8 | B8 | A4 c4- | c2 c2 c4 | (d6 c2) | %58
w: |bis.|Chri-|ste,|Fi\- *|li *|De\-||i, pre\-|* ci- bus|san\- *|
 A6 B2 | c8 | F8 | G8) | F8 | z8 | z4 F4 | (G2 B2) A4 | G8 | z8 | z8 | z8 | z8 | z8 | z8 | z8 | %74
w: ctis- si-|mae|ma\-||tris||ad-|ju\- * va|nos||||||||
 z4 F4 | G4 F4 | B6 A2 | G4 F4 | (B2 c2) d4 | (G8 | A8) | G8- | G8 |] %83
w: et|tol- le|tri- bu-|la- ti-|o\- * nem|nos\-||tram.||
V:4
 z8 | z8 | z8 | z8 | z8 | z8 | z4 G,4 | F,4 D,4 | E,8 | D,8 | E,8 | D,4 G,4 | (F,2 D,2) E,4 | %13
w: ||||||Sal-|va- tor|nos-|ter,|mun-|di qui|cri\- * mi-|
 D,4 (E,4 | D,4 G,4 | F,2 D,2 E,4) | D,4 E,4 | D,4 (G,4 | F,2 D,2) E,4 | D,8 | %20
w: na tol\-|||lis, mi-|se- re\-|* * re|no-|
"^bis." !fermata!G,8 | z8 | z8 | z8 | z8 | z8 | z8 | z8 | z8 | z8 | z8 | z8 | z8 | F,8 | %34
w: |||||||||||||Fi-|
 (E,4 F,4) | (D,4 B,,4 | C,8 | B,,8 | F,8 | F,4 F,4 | G,4 E,4 | D,4 C,4 | F,8 | z8 | A,8 | %45
w: li *|De\- *||i,|mun-|di ve-|ris- si-|ma sa-|lus,||mi\-|
 B,6 A,2 | G,4 F,4 | E,8 | !fermata!D,8 || z8 | z8 | z8 | z8 | z8 | z8 | z4 A,4- | A,2 A,2 A,4 | %57
w: * se-|re- re|no-|bis.|||||||pre\-|* ci- bus|
 D,4 D,4 | F,6 E,2) | C,8 | D,8 | C,8 | z4 F,4 | (G,2 B,2) A,4 | G,4 z4 | z8 | z4 C,4 | D,4 C,4 | %68
w: san- ctis-|si\- *|mae|ma-|tris|ad-|ju\- * va|nos||et|tol- le|
 F,6 E,2 | (D,4 C,4 | F,2 G,2 A,4) | D,8 | E,8 | D,8 | (G,4 D,4 | G,4 D,4 | G,4 D,4 | G,4 D,4 | %78
w: tri- bu-|la\- *||ti-|o-|nem|no\- *||||
 G,4 F,4 | G,8 | D,8) | G,8- | G,8 |] %83
w: |||stram.||

